outputs/icons/alert/add_alert_round.svg

<svg xmlns="http://www.w3.org/2000/svg" width="1200" height="1200" fill="none"><g fill="#000" clip-path="url(#a)"><path fill-rule="evenodd" d="M924.375 879.685h55.315c30.42 0 55.31 24.895 55.31 55.315s-24.89 55.31-55.31 55.31H205.313C174.891 990.31 150 965.42 150 935s24.891-55.315 55.313-55.315h55.312V492.5c0-154.322 105.647-284.306 248.905-320.812v-38.719C509.53 87.059 546.59 50 592.5 50s82.97 37.059 82.97 82.969v38.719c143.26 36.506 248.905 166.49 248.905 320.812zm-276.56-221.25h55.31c30.42 0 55.315-24.89 55.315-55.31s-24.895-55.315-55.315-55.315h-55.31V492.5c0-30.422-24.895-55.312-55.315-55.312s-55.31 24.89-55.31 55.312v55.31h-55.315c-30.422 0-55.312 24.895-55.312 55.315s24.89 55.31 55.312 55.31h55.315v55.315c0 30.42 24.89 55.31 55.31 55.31s55.315-24.89 55.315-55.31z"/><path d="M703.125 1045.625c0 60.845-49.78 110.625-110.625 110.625s-110.625-49.78-110.625-110.625z"/></g><defs><clipPath id="a"><path fill="#fff" d="M0 0h1200v1200H0z"/></clipPath></defs></svg>

<svg width="1200" height="1200" viewBox="0 0 1200 1200" fill="none" xmlns="http://www.w3.org/2000/svg"><g clip-path="url(#clip0_223_2054)"><path fill-rule="evenodd" d="M924.375 879.685H979.69C1010.11 879.685 1035 904.58 1035 935C1035 965.42 1010.11 990.31 979.69 990.31H205.313C174.891 990.31 150 965.42 150 935C150 904.58 174.891 879.685 205.313 879.685H260.625V492.5C260.625 338.178 366.272 208.194 509.53 171.688V132.969C509.53 87.059 546.59 50 592.5 50C638.41 50 675.47 87.059 675.47 132.969V171.688C818.73 208.194 924.375 338.178 924.375 492.5V879.685ZM647.815 658.435H703.125C733.545 658.435 758.44 633.545 758.44 603.125C758.44 572.705 733.545 547.81 703.125 547.81H647.815V492.5C647.815 462.078 622.92 437.188 592.5 437.188C562.08 437.188 537.19 462.078 537.19 492.5V547.81H481.875C451.453 547.81 426.563 572.705 426.563 603.125C426.563 633.545 451.453 658.435 481.875 658.435H537.19V713.75C537.19 744.17 562.08 769.06 592.5 769.06C622.92 769.06 647.815 744.17 647.815 713.75V658.435ZM703.125 1045.625C703.125 1106.47 653.345 1156.25 592.5 1156.25C531.655 1156.25 481.875 1106.47 481.875 1045.625H703.125Z" fill="#1D1E23"/></g><defs><clipPath id="clip0_223_2054"><path width="24" fill="white" d="M0 0H1200V1200H0V0z"/></clipPath></defs></svg>
